X:1
T:Dublin Hornpipe [2], The
M:C|
L:1/8
R:Hornpipe
S:O'Neill - Music of Ireland (1903), No. 1725
Z:AK/Fiddler's Companion
K:G
(dc) | BGEG cAFD | d^cde dBGD | EdcB AGFG | (3ABG (3FGE Dcdc |
BGDG cAFD | d^cde dBGD | EdcB AGFA | G>B (3def g2 :|
|: b>g (3ggg dgBg | b>g (3ggg dgBg | c'>a (3aaa eaca | c'>a (3aaa eaca |
b>g (3ggg dgBg | b>g (3ggg df b2 |1 (3aba (3gag (3fgf (3efe |
(3ded (3cdc (3BcB ga :|2 agfa gfec | (3ddd ef gedc ||

